X: 100387
P: THE CHORUS LANCERS QUADRILLES -- Part 1.
M: 6/8
L: 1/8
K: G
vG/uG/ !segno!|\
[g3B3D3G,3] gfe | edd (.d2.e) | dcc (.c2.d) | cBB B2G/G/ |\
[g3B3D3G,3] gfe | edd (.d2.e) | dcc cdf | g3 |]
uDGA |\
(.B2.B) GBc | (.d2.d) eBe | dcA FAe | dBG DGA |\
(.B2.B) GBc | (.d2.d) eBe | dcA DFA | G3- G2 "^D.C."|]
uFGA |\
(.B2.B) F^dF | (.B2.B) cBA | (.G2.G) DBD | (.G2.G) FGA |\
(.B2.B) F^dF | (.B2.B) cBA | (.G2.G) DBD | G3- G2 "^D.C."|]


